src/actions/24/mail-signed-full.svg

<svg viewBox="0 0 24 24" xmlns="http://www.w3.org/2000/svg">
 <defs>
  <style type="text/css">.ColorScheme-Text {
        color:#2e3440;
      }
      .ColorScheme-PositiveText {
        color:#a3be8c;
      }</style>
 </defs>
 <path class="ColorScheme-Text" d="m2 4v1 8 6 0.41406 0.58594h1 6 3v-1h-3-6v-0.58594l6.7305-6.7305 1.4531 1.4512 0.81445 0.81445h0.001953l0.81641-0.81445 1.4531-1.4512 1.3164 1.3164h1.4141l-2.0234-2.0234 5.752-5.7539 0.22266-0.22266h0.048828v0.22266 5.7773h1v-7h-0.048828-0.95117-0.46289-17.074-0.46289-1zm1 1h0.048828l0.22266 0.22266 5.752 5.7539-6.0234 6.0234v-4-7.7773-0.22266zm1.4629 0h15.074l-7.5371 7.5371-7.5371-7.5371z" fill="currentColor"/>
 <path class="ColorScheme-PositiveText" d="m20 12-0.99609 0.99414-0.003906-0.003907-5 4.998 0.005859 0.00586-0.005859 0.005859 0.007812 0.007812-0.003906 0.99219h-0.003906v0.99023 0.009766h2l0.009766-0.009766c4e-3 -2e-5 0.005765 0.001953 0.009765 0.001954l-0.005859-0.00586 0.98633-0.98633 4-3.9961c-0.0043 0.0025-0.005466 0.00336-0.009766 0.00586l0.009766-0.011719 1-1-2-1.998z" fill="currentColor"/>
</svg>

<svg xmlns="http://www.w3.org/2000/svg" viewBox="0 0 24 24">
  <defs id="defs3051">
    <style type="text/css" id="current-color-scheme">
      .ColorScheme-Text {
        color:#2e3440;
      }
      .ColorScheme-PositiveText {
        color:#a3be8c;
      }
      </style>
  </defs>
  <path 
     style="fill:currentColor;fill-opacity:1;stroke:none" 
     d="M 2 4 L 2 5 L 2 13 L 2 19 L 2 19.414062 L 2 20 L 3 20 L 9 20 L 12 20 L 12 19 L 9 19 L 3 19 L 3 18.414062 L 3.4628906 17.951172 L 9.7304688 11.683594 L 11.183594 13.134766 L 11.998047 13.949219 L 12 13.949219 L 12.816406 13.134766 L 14.269531 11.683594 L 15.585938 13 L 17 13 L 14.976562 10.976562 L 20.728516 5.2226562 L 20.951172 5 L 21 5 L 21 5.2226562 L 21 11 L 22 11 L 22 4 L 21.951172 4 L 21 4 L 20.537109 4 L 3.4628906 4 L 3 4 L 2 4 z M 3 5 L 3.0488281 5 L 3.2714844 5.2226562 L 9.0234375 10.976562 L 3 17 L 3 13 L 3 5.2226562 L 3 5 z M 4.4628906 5 L 19.537109 5 L 12 12.537109 L 4.4628906 5 z "
     class="ColorScheme-Text"
     />
  <path
     style="fill:currentColor;fill-opacity:1;stroke:none" 
     class="ColorScheme-PositiveText"
     d="M 20 12 L 19.003906 12.994141 L 19 12.990234 L 14 17.988281 L 14.005859 17.994141 L 14 18 L 14.007812 18.007812 L 14.003906 19 L 14 19 L 14 19.990234 L 14 20 L 16 20 L 16.005859 19.994141 L 16.009766 19.990234 C 16.013766 19.990214 16.015531 19.992187 16.019531 19.992188 L 16.013672 19.986328 L 17 19 L 21 15.003906 C 20.9957 15.006406 20.994534 15.007266 20.990234 15.009766 L 21 14.998047 L 21.998047 14 L 22 13.998047 L 20 12 z "
      />
</svg>
